lib/flags/m/729.svg

<svg xmlns="http://www.w3.org/2000/svg" fill="none" viewBox="0 0 20 15"><mask id="729_svg__a" width="20" height="15" x="0" y="0" maskUnits="userSpaceOnUse"><path fill="#fff" d="M0 0h20v15H0z"/></mask><g fill-rule="evenodd" clip-rule="evenodd" mask="url(#729_svg__a)"><path fill="#F7FCFF" d="M0 0h20v15H0V0z"/><path fill="#E31D1C" d="M0 0v5h20V0H0z"/><path fill="#272727" d="M0 10v5h20v-5H0z"/><path fill="#5EAA22" d="M0 0l10 7.5L0 15V0z"/></g></svg>

<svg xmlns="http://www.w3.org/2000/svg" fill="none" viewBox="0 0 20 15"><mask id="729_svg__a" width="20" height="15" x="0" y="0" mask-type="alpha" maskUnits="userSpaceOnUse"><path fill="#fff" d="M0 0H20V15H0z"/></mask><g fill-rule="evenodd" clip-rule="evenodd" mask="url(#729_svg__a)"><path fill="#F7FCFF" d="M0 0H20V15H0V0Z"/><path fill="#E31D1C" d="M0 0V5H20V0H0Z"/><path fill="#272727" d="M0 10V15H20V10H0Z"/><path fill="#5EAA22" d="M0 0L10 7.5L0 15V0Z"/></g></svg>
